optimized/24/outline/address.svg

<svg viewBox="0 0 24 24" xmlns="http://www.w3.org/2000/svg" fill="currentColor" data-slot="icon">
  <g clip-path="url(#clip0_2208_12289)">
    <path d="M9.25604 8.33721C9.25604 6.85375 10.4845 5.65116 12 5.65116C13.5154 5.65116 14.7439 6.85375 14.7439 8.33721C14.7439 9.82067 13.5154 11.0233 12 11.0233C10.4845 11.0233 9.25604 9.82067 9.25604 8.33721ZM12 7.11628C11.3112 7.11628 10.7527 7.66291 10.7527 8.33721C10.7527 9.01151 11.3112 9.55814 12 9.55814C12.6888 9.55814 13.2472 9.01151 13.2472 8.33721C13.2472 7.66291 12.6888 7.11628 12 7.11628Z"/>
    <path d="M12.5549 18.6715C14.2078 17.3983 18.9846 13.3186 18.9846 8.69239C18.9846 6.78485 18.2487 4.95544 16.9388 3.6066C15.629 2.25777 13.8524 1.5 12 1.5C10.1476 1.5 8.371 2.25777 7.06113 3.6066C5.75126 4.95544 5.01539 6.78485 5.01539 8.69239C5.01539 13.3186 9.79214 17.3982 11.4451 18.6715C11.7752 18.9257 12.2248 18.9257 12.5549 18.6715ZM15.2096 14.038C14.0956 15.4355 12.8287 16.5585 12 17.2276C11.1713 16.5585 9.90436 15.4355 8.79037 14.038C7.47339 12.3858 6.51209 10.5275 6.51209 8.69239C6.51209 7.15015 7.10775 5.68508 8.1459 4.61604C9.18161 3.54953 10.5697 2.96512 12 2.96512C13.4303 2.96512 14.8184 3.54953 15.8541 4.61604C16.8922 5.68508 17.4879 7.15015 17.4879 8.69239C17.4879 10.5275 16.5266 12.3858 15.2096 14.038Z"/>
    <path d="M4.41173 15.4186C3.55814 15.4186 2.82966 16.0227 2.68934 16.8469L2.02419 20.5097C1.8468 21.5516 2.66757 22.5 3.74658 22.5H20.2534C21.3324 22.5 22.1532 21.5516 21.9758 20.5097L21.3106 16.8469C21.1702 16.0227 20.4418 15.4186 19.5882 15.4186H18.44C18.0267 15.4186 17.6917 15.7466 17.6917 16.1512C17.6917 16.5557 18.0267 16.8837 18.44 16.8837H19.5882C19.7101 16.8837 19.8142 16.97 19.8342 17.0878L20.4995 20.7506C20.5248 20.8994 20.4076 21.0349 20.2534 21.0349H3.74658C3.59244 21.0349 3.47519 20.8994 3.50053 20.7506L4.16567 17.0878C4.18572 16.97 4.28979 16.8837 4.41173 16.8837H5.55986C5.97317 16.8837 6.30821 16.5557 6.30821 16.1512C6.30821 15.7466 5.97317 15.4186 5.55986 15.4186H4.41173Z"/>
  </g>
  <defs>
    <clipPath id="clip0_2208_12289">
      <rect width="24" height="24"/>
    </clipPath>
  </defs>
</svg>

<svg xmlns="http://www.w3.org/2000/svg" viewBox="0 0 24 24" fill="currentColor" data-slot="icon">
  <g clip-path="url(#a)">
    <path d="M9.256 8.337c0-1.483 1.229-2.686 2.744-2.686 1.515 0 2.744 1.203 2.744 2.686 0 1.484-1.229 2.686-2.744 2.686-1.515 0-2.744-1.202-2.744-2.686ZM12 7.117c-.689 0-1.247.546-1.247 1.22 0 .675.558 1.221 1.247 1.221.689 0 1.247-.546 1.247-1.22 0-.675-.558-1.222-1.247-1.222Z"/>
    <path d="M12.555 18.672c1.653-1.274 6.43-5.353 6.43-9.98a7.302 7.302 0 0 0-2.046-5.085A6.884 6.884 0 0 0 12 1.5a6.884 6.884 0 0 0-4.939 2.107 7.302 7.302 0 0 0-2.046 5.085c0 4.627 4.777 8.706 6.43 9.98.33.254.78.254 1.11 0Zm2.655-4.634c-1.114 1.397-2.381 2.52-3.21 3.19-.829-.67-2.096-1.793-3.21-3.19-1.317-1.652-2.278-3.51-2.278-5.346 0-1.542.596-3.007 1.634-4.076A5.372 5.372 0 0 1 12 2.966c1.43 0 2.818.584 3.854 1.65a5.854 5.854 0 0 1 1.634 4.076c0 1.835-.961 3.694-2.278 5.346Z"/>
    <path d="M4.412 15.419c-.854 0-1.582.604-1.723 1.428l-.665 3.663c-.177 1.042.644 1.99 1.723 1.99h16.506c1.08 0 1.9-.948 1.723-1.99l-.665-3.663a1.736 1.736 0 0 0-1.723-1.428H18.44a.74.74 0 0 0-.748.732.74.74 0 0 0 .748.733h1.148c.122 0 .226.086.246.204l.666 3.663a.246.246 0 0 1-.247.284H3.747a.246.246 0 0 1-.246-.284l.665-3.663a.248.248 0 0 1 .246-.204H5.56a.74.74 0 0 0 .748-.733.74.74 0 0 0-.748-.732H4.412Z"/>
  </g>
  <defs>
    <clipPath id="a">
      <rect width="24" height="24"/>
    </clipPath>
  </defs>
</svg>
